X:1
T:As I was going to Derby
T:John Wall  Callcott (1766-1821) Accompaniment added by William Horsley (1774-1858)
T:Adapted from a traditional Derbyshire song
T:As I was going to Derby
T:Glee
T:expired
T:expired
T:expired
T:expired
T:expired
T:expired
T:expired
T:expired
T:expired
T:expired
T:expired
C:John Wall  Callcott (1766-1821)
C:Accompaniment added by William Horsley (1774-1858)
Z:Adapted from a traditional
Z:Derbyshire song
Z:expired
%%score [ 1 2 3 ] { ( 4 5 ) | ( 6 7 8 ) }
L:1/8
Q:3/4=88
M:6/4
K:C
V:1 treble nm="Counter tenor" snm="A."
V:2 treble-8 transpose=-12 nm="Tenor" snm="T."
V:3 bass nm="Bass" snm="B."
V:4 treble nm="Piano"
V:5 treble 
V:6 bass 
V:7 bass 
V:8 bass 
V:1
!mf!"^Cheerfully" G,2 | (C3 D) E2 D2 E2 F2 | E6 C4 G,2 | A,4 C2 F4 E2 | (E6 D4) D2 | %5
w: As|I _ was go- ing to|Der- by, 'Twas|on a mar- ket|day, _ I|
 C4 C2 (C2 D2) C2 | B,6 G4 G,2 | A,2 B,2 C2 B,3 C A,2 | G,6- G,4 :: G,2 | D4 B,2 G,4 G,2 | %11
w: met the fi- * nest|ram, Sir, That|e- ver was fed up- on|hay. _|This|ram was fat be-|
 C6 G,4 G,2 | A,4 C2 B,4 D2 | G6- G4 D2 | E4 E2 E4 E2 | A6 E4 E2 | F4 F2 E4 E2 | D6- D4 G,2 | %18
w: hind, Sir, This|ram was fat be-|fore; _ This|ram was ten yards|high, Sir, In-|deed he was no|more! _ no|
 C4 z2 z2 z2 G,2 | D4 z2 z2 z2 D2 | E4 E2 (E2 F2) D2 | C6 z6 | z6 z2 z2 E2 | F6 z6 | %24
w: more? no|more? in-|deed he was _ no|more,|no|more,|
 z6 z2 z2"^cresc." ^F2 | G6- G6- | G2 (F2 E2) (F2 G2) A2 | E6 D6 | C6- C4 :: G,2 | C3 D E2 D4 G2 | %31
w: no|more, _|_ in- * deed _ he|was no|more. _|The|but- cher that killed this|
 E6 C4 A,2 | D3 E F2 E4 A2 | F6- F4 D2 | G4 G2 G4 F2 | E6 E4 G2 | C4 C2 F4 F2 | D6 D4 D2 | %38
w: ram, Sir, Was|up to his knees in|blood! _ The|boy that held the|pail, Sir the|boy that held the|pail, Sir was|
 G4 E2 E4 C2 | D2 F2 E2 D2 C2 B,2 | C6 z2 z2 C2 | F6 z2 z2 D2 | G6 z2 z2 E2 | A6 z2 z2 A2 | D6 D6 | %45
w: car- ried, car- ried|car- ried a- way by the|flood! the|boy that|held the|pail, the|boy was|
 E2 D2 C2 B,2 C2 A,2 | B,6 G6 | E2 D2 C2 B,2 C2 A,2 | G,6- G,4 :: D2 | D4 D4 C2 B,2 | %51
w: car- ried a- way by the|flood! was|car- ried a- way by the|flood! _|The|tail that grew up-|
 !wedge!C4 !wedge!D2 !wedge!E4 C2 | C4 C2 (C2 B,2) A,2 | !wedge!B,4 !wedge!C2 !wedge!D4 G,2 | %54
w: on his rump, the|tail that grew _ up-|on his rump was|
 C4 G,2 E4 C2 | D6- D4 G,2 | D4 G,2 F4 D2 | E6- E4 E2 | E4 z2 z2 z2 E2 | E6 z2 z2 E2 | %60
w: ten yards and an|ell! _ was|ten yards and an|ell! _ the|tail up-|on was|
 E4 E2 A4 G2 | F6- F4 E2 | D4 C2 B,4 A,2 | ^G,6 z2 z2 E2 | E4 z2 z2 z2 E2 | E4 z2 z2 z2 E2 | %66
w: ten yards and an|ell! _ was|ten yards and an|ell! ten|yards, ten|yards, was|
 D4 C2 (C2 D2) B,2 | A,6- !fermata!A,4 C2 | C4 F2 D4 G2 | E6 A4 z2 | z2 z2!p! E2 E4 D2 | %71
w: ten yards and _ an|ell! _ And|that was sent to|Der- by|the mar- ket|
 C6- C4 z2 | z2 z2 G2 G4 F2 | E6- E4 G,2 | A,6 z2 z2 B,2 | C6 z2 z2 D2 | E4 D2 E4 F2 | G6- G4 E2 | %78
w: bell! _|the mar- ket|bell! _ to|toll, to|toll, to|toll the mar- ket|bell! _ to|
 D4 E2 D4 E2 | D4 z2 z2 z2"^cresc." D2 | E4 F2 G4 A2 | E6 D6 | C6- C4 :| %83
w: toll the mar- ket|bell! to|toll to toll the|mar- ket|bell! _|
V:2
!mf! G2 | G4 c2 B2 c2 d2 | c6 G4 E2 | F4 G2 (A2 B2) c2 | (c6 B4) B2 | A4 A2 A4 ^F2 | G6 B4 B2 | %7
w: As|I was go- ing to|Der- by, 'Twas|on a mar- * ket|day, _ I|met the fi- nest|ram, Sir, That|
 E2 E2 A2 G3 A ^F2 | G6- G4 :: G2 | B4 G2 D4 F2 | E6 E4 z2 | z12 | z6 z2 z2 e2 | c4 B2 c4 ^G2 | %15
w: e- ver was fed up- on|hay. _|This|ram was fat be-|hind, Sir,||This|ram was ten yards|
 A6 c4 ^c2 | d4 d2 c4 c2 | B6- B4 z2 | z2 z2 G2 G4 z2 | z6 z2 z2 B2 | c4 c2 (c2 d2) B2 | %21
w: high, Sir, In-|deed he was no|more! _|no more?|in-|deed he was _ no|
 c4 G2 c4 _B2 | A4 c2 G4 c2 | A4 A2 d4 c2 | B4 d2 A4"^cresc." d2 | B6- B4 d2 | G4 c2 c4 c2 | %27
w: more, in- deed, in-|deed, he was no|more, in- deed, in-|deed he was no|more, _ in-|deed, in- deed he|
 c6 B6 | c6- c4 :: G2 | G3 G c2 c4 B2 | c6 G4 A2 | A3 A d2 d4 ^c2 | d6- d4 z2 | z6 z2 z2 G2 | %35
w: was no|more. _|The|but- cher that killed this|ram, Sir, Was|up to his knees in|blood! _|The|
 c4 c2 c4 B2 | A6 A4 d2 | B6 B4 d2 | G4 c2 G4 E2 | F2 A2 G2 F2 E2 D2 | E6 z2 z2 A2 | d6 z2 z2 B2 | %42
w: boy that held the|pail, Sir, the|boy, Sir, was|car- ried, car- ried|car- ried a- way by the|flood! the|boy that|
 e6 z2 z2 c2 | f6 z2 z2 c2 | B6 B6 | c2 B2 A2 G2 A2 ^F2 | G6 B6 | c2 B2 A2 G2 A2 ^F2 | G6- G4 :: %49
w: held the|pail, the|boy was|car- ried a- way by the|flood! was|car- ried a- way by the|flood! _|
 B2 | B4 B2 (B2 A2) ^G2 | !wedge!A4 !wedge!B2 !wedge!c4 A2 | A4 A2 (A2 G2) ^F2 | %53
w: The|tail that grew _ up-|on his rump, the|tail that grew _ up-|
 !wedge!G4 !wedge!A2 !wedge!B4 G2 | G4 c2 G4 c2 | B6- B4 G2 | G4 d2 d4 B2 | c6- c4 z2 | %58
w: on his rump was|ten yards and an|ell! _ was|ten yards and an|ell! _|
 z2 z2 c2 B4 z2 | z2 z2 c2 B4 B2 | c4 c2 c4 ^c2 | (d6 B4) c2 | ^G4 A2 F4 D2 | E6 z6 | %64
w: that grew|his rump was|ten yards and an|ell! _ was|ten yards and an|ell!|
 z2 B2 d2 c4 z2 | z2 B2 d2 c4 c2 | B4 A2 (A2 B2) ^G2 | c6- !fermata!c4 G2 | A4 d2 B4 e2 | %69
w: and an ell,|and an ell, was|ten yards and _ an|ell! _ And|that was sent to|
 c6 c4 z2 | z2 z2!p! G2 G4 F2 | E6- E4 z2 | z2 z2 e2 e4 d2 | c6- c4 E2 | F6 z2 z2 D2 | %75
w: Der- by|the mar- ket|bell! _|the mar- ket|bell! _ to|toll, to|
 E6 z2 z2 G2 | c4 B2 c4 d2 | e6- e4 c2 | B4 c2 B4 c2 | B4 z2 z2 z2"^cresc." B2 | c4 d2 e4 f2 | %81
w: toll, to|toll the mar- ket|bell! _ to|toll the mar- ket|bell! to|toll to toll the|
 c6 B6 | c6- c4 :| %83
w: mar- ket|bell! _|
V:3
!mf! G,2 | E,4 C,2 G,2 G,2 G,2 | C,6 E,4 C,2 | F,4 E,2 D,4 C,2 | G,6- G,4 E,2 | A,4 G,2 ^F,4 D,2 | %6
w: As|I was go- ing to|Der- by, 'Twas|on a mar- ket|day, _ I|met the fi- nest|
 G,6 E,4 E,2 | C,2 C,2 C,2 D,3 D, D,2 | G,,6- G,,4 :: z2 | z12 | z6 z2 z2 E,2 | F,4 D,2 G,4 F,2 | %13
w: ram, Sir, That|e- ver was fed up- on|hay. _|||This|ram was fat be-|
 E,6- E,4 G,2 | C,4 E,2 A,4 B,2 | C6 A,4 A,2 | D,4 D,2 E,4 F,2 | G,6- G,4 z2 | z12 | %19
w: fore; _ This|ram was ten yards|high, Sir, In-|deed he was no|more! _||
 z2 z2 G,2 G,4 G,2 | E,4 C,2 G,4 G,2 | C,6- C,4 z2 | z6 z2 z2 C,2 | F,6- F,4 z2 | %24
w: no more? in-|deed it was no|more, _|no|more, _|
 z6 z2 z2"^cresc." D,2 | G,4 G,,2 G,4 F,2 | (E,2 D,2) C,2 (A,2 G,2) F,2 | G,6 G,6 | C,6- C,4 :: %29
w: no|more, in- deed, in-|deed, _ in- deed _ he|was no|more. _|
 G,2 | E,3 D, C,2 G,4 G,2 | C6 E,4 A,2 | F,3 E, D,2 A,4 A,2 | D6- D4 z2 | z12 | z12 | %36
w: The|but- cher that killed this|ram, Sir, Was|up to his knees in|blood! _|||
 z6 z2 z2 D,2 | G,4 G,2 G,4 F,2 | E,6 C,6 | z6 z2 G,2 G,2 | C,2 D,2 E,2 F,2 E,2 F,2 | %41
w: The|boy that held the|pail, Sir,|by the|flood _ _ _ _ _|
 D,2 E,2 F,2 G,2 F,2 G,2 | E,2 F,2 G,2 A,2 G,2 A,2 | F,2 E,2 F,2 D,2 E,2 F,2 | G,6 G,6 | %45
w: _ _ _ _ _ _||* * * * * the|boy was|
 C,2 C,2 C,2 D,2 D,2 D,2 | G,6 E,6 | C,2 C,2 C,2 D,2 D,2 D,2 | G,,6- G,,4 :: G,2 | %50
w: car- ried a- way by the|flood! was|car- ried a- way by the|flood! _|The|
 G,4 G,2 E,4 E,2 | !wedge!A,4 !wedge!A,2 !wedge!A,4 A,2 | ^F,4 F,2 D,4 D,2 | %53
w: tail that grew up-|on his rump, the|tail that grew up-|
 !wedge!G,4 !wedge!G,2 !wedge!G,4 G,2 | E,4 E,2 C,4 E,2 | G,6- G,4 G,2 | B,4 B,2 G,4 G,2 | %57
w: on his rump was|ten yards and an|ell! _ was|ten yards and an|
 C6- C4 z2 | z2 z2 A,2 ^G,4 z2 | z2 z2 A,2 ^G,4 G,2 | A,4 G,2 F,4 E,2 | D,6- D,4 C,2 | %62
w: ell! _|that grew|his rump was|ten yards and an|ell! _ was|
 B,,4 A,,2 D,4 F,2 | E,6 z6 | z2 ^G,2 B,2 A,4 z2 | z2 ^G,2 B,2 A,4 C,2 | D,4 A,,2 E,4 E,2 | %67
w: ten yards and an|ell!|and an ell!|and an ell! was|ten yards and an|
 A,,6- !fermata!A,,4 E,2 | F,4 D,2 G,4 E,2 | A,6 F,4!p! C,2 | C,6 z6 | z6 z2 z2 C,2 | C,6 z6 | %73
w: ell! _ And|that was sent to|Der- by To|toll,|to|toll,|
 z12 | z2 z2 C,2 C,4 z2 | z2 z2 C,2 C,4 z2 | z12 | z2 z2 C,2 C,4 C,2 | G,4 G,2 G,4 G,2 | %79
w: |to toll,|to toll,||to toll, to|toll the mar- ket|
 G,4"^cresc." G,2 G,4 G,2 | C6- C4 F,2 | G,6 G,6 | C,6- C,4 :| %83
w: bell! to toll, to|toll _ the|mar- ket|bell! _|
V:4
!mf! G,2 | (C3 D E2) (D2 E2 F2) | E6 C4 G,2 | A,4 C2 F4 E2 | (E6 D4) D2 | C4 C2 C2 D2 C2 | %6
 B,6 G4 G,2 | (A,2 B,2 C2) (B,3 C A,2) | G,6- G,4 :: G,2 | D4 B,2[K:bass] G,4 [G,A,]2 | %11
 C6 G,4[K:treble] G,2 | A,4 C2 B,4 D2 | G6- G4 [DE]2 | E4 E2 E4 E2 | A6 E4 E2 | F4 F2 E4 E2 | %17
 D6- D4 G,2 | C4 G,2 G,4 G,2 | D4 z2 z2 z2 [B,D]2 | E4 E2 (E2 F2) D2 | C6 x6 | A,4 C2 G,4 C2 | %23
 F6 x6 | B,4 D2 A,4"^cresc." D2 | G6- G6- | G2 F2 E2 F2 G2 A2 | E6 D6 | C6- C4 :: G,2 | %30
 C3 D E2 D4 G2 | E6 C4 A,2 | D3 E F2 E4 A2 | F6- F4 D2 | G4 G2 G4 F2 | E6 E4 G2 | C4 C2 F4 F2 | %37
 D6 D4 D2 | G4 E2 E4[I:staff +1] C2 |[I:staff -1] D2 F2 E2 D2 C2 B,2 | C6 z2 z2 C2 | F6 z2 z2 D2 | %42
 G6 z2 z2 E2 | [FA]6 z2 z2 [CA]2 | D6 D6 | E2 D2 C2 B,2 C2 A,2 | B,6 G6 | E2 D2 C2 B,2 C2 A,2 | %48
 G,6- G,4 :: [B,D]2 | D4 D2 (D2 C2 B,2) | !wedge![A,C]4 !wedge![B,D]2 !wedge![CE]4 [A,C]2 | %52
 C4 C2 (C2 B,2 A,2) | !wedge![G,B,]4 !wedge![A,C]2 !wedge![B,D]4 G,2 | C4 C2 E4 C2 | %55
 [B,D]6- [B,D]4 G,2 | D4 G,2 F4 D2 | E6- E4 z2 | E4 z2 z2 z2 E2 | E4 z2 z2 z2 [B,E]2 | %60
 E4 E2 A4 G2 | F6 F4 E2 | D4 C2[I:staff +1] B,4 A,2 |[I:staff -1] z6 z2 z2 E2 | E4 z2 z2 z2 E2 | %65
 E4 z2 z2 z2 [CE]2 | D4 C2 (C2 D2) B,2 | [A,C]6- [A,C]4 [G,C]2 | C4 F2 D4 G2 | E6 A4!p! z2 | %70
 z2 z2 E2 E4 D2 | C6- C4 z2 | z2 z2 [EG]2 [EG]4 [DF]2 | [CE]6- [CE]4 z2 | z12 | %75
[I:staff +1] C6[I:staff -1] z2 z2 D2 | (E4 D2 E4 F2) | G6- G4 E2 | D4 E2 D4 E2 | %79
 D4"^cresc." z2 z2 z2 D2 | E4 F2 G4 A2 | E6 D6 | C6- C4 :| %83
V:5
 G,2 |[I:staff +1] G,4[I:staff -1] C2 B,2 C2 D2 | C6[I:staff +1] G,4 E,2 | x12 | %4
[I:staff -1] C6 B,4 B,2 | A,4 A,2 A,4[I:staff +1] ^F,2 | G,6[I:staff -1] B,4 B,2 | %7
[I:staff +1] E,4[I:staff -1] A,2 G,3 A, ^F,2 | x6 x4 :: G,2 | B,4 G,2[K:bass] D,4 x2 | %11
 E,6 E,4[K:treble] x2 | x12 | x12 | C4 B,2 C4[I:staff +1] ^G,2 | A,6[I:staff -1] C4 ^C2 | %16
 D4 D2 C4 C2 | B,6- B,4 x2 | x12 | x12 | C4 C2 C2 D2 B,2 | C4 G,2 C4 _B,2 | x6 x4 E2 | %23
 A,4 A,2 D4 C2 | x6 x4 ^F2 | B,6- B,4 D2 | G,4 C2 C6- | C6 B,6 | C6- C4 :: G,2 | G,4 C2- C4 B,2 | %31
 C6 G,4 A,2- | A,4 D2- D4 ^C2 | x12 | z6 z2 z2 G,2 | C6 C4 B,2 | A,6 A,4 D2 | B,6 B,4 D2 | %38
 G,4 C2 G,4[I:staff +1] E,2 | F,2 A,2 G,2 F,2 E,2 D,2 | E,6[I:staff -1] x2 x2 A,2 | D6 x2 x2 B,2 | %42
 E6 x2 x2 C2 | x12 | B,6 B,6 | (C2 B,2 A,2) (G,2 A,2 ^F,2) | G,6 B,6 | %47
 (C2 B,2 A,2) (G,2 A,2 ^F,2) | G,6- G,4 :: x2 | B,6 B,2 A,2 ^G,2 | x12 | A,4 A,2 A,2 G,2 ^F,2 | %53
 x12 |[I:staff +1] [E,G,]6[I:staff -1] G,6 | x12 | G,4 D2 D4 B,2 | %57
[I:staff +1] C6- C4[I:staff -1] z2 | x12 | x12 | C4 C2 C4 ^C2 | (D6 B,4) C2 | %62
[I:staff +1] ^G,4 A,2 F,4 D,2 | x12 | x12 | x12 |[I:staff -1] B,4 A,2 A,2 B,2 ^G,2 | x12 | %68
 A,4 D2 B,4 E2 | C6 C4 x2 | x12 | x12 | x12 | x12 | x12 |[I:staff +1] E,6[I:staff -1] x2 x2 G,2 | %76
 C4 B,2 C4 D2 | E6- E4 C2 | B,4 C2 B,4 C2 | B,4 x2 x2 x2 B,2 | C4 D2 E4 F2 | C6 B,6 | C6- C4 :| %83
V:6
 G,2 | E,4 C,2 G,6 | C,6 E,4 C,2 | x2 x2 G,2 A,2 B,2 C2 | G,6- G,4 E,2 | A,4 G,2 ^F,4 D,2 | %6
 G,6 E,4 E,2 | C,4 C,2 D,6 | G,,6- G,,4 :: z2 | z12 | z6 z2 z2 E,2 | F,4 D,2 G,4 F,2 | z12 | %14
 C,4 E,2 A,4[I:staff -1] B,2 | C6[I:staff +1] A,4 A,2 | D,4 D,2 E,4 F,2 | G,6- G,4 z2 | z12 | %19
 z2 z2 G,2 G,4 G,2 | E,4 C,2 G,6 | C,6- C,4 z2 | z6 z2 z2 C,2 | F,6- F,4 z2 | z6 z2 z2 D,2 | %25
 G,4 G,,2 G,4 F,2 | E,2 D,2 C,2 A,2 G,2 F,2 | G,6 G,6 | C,6- C,4 :: G,2 | E,3 D, C,2 G,6 | %31
 C6 E,4 A,2 | F,3 E, D,2 A,6 | D6- D4 z2 | z12 | z12 | z6 z2 z2 D,2 | G,4 G,2 G,4 F,2 | E,6 C,6 | %39
 x6 x2 G,,4 | C,2 D,2 E,2 F,2 E,2 F,2 | D,2 E,2 F,2 G,2 F,2 G,2 | E,2 F,2 G,2 A,2 G,2 A,2 | %43
 F,2 E,2 F,2 D,2 E,2 F,2 | G,6 G,6 | G,6 E,6 | G,6 E,6 | C,6 D,6 | G,,6- G,,4 :: G,2 | G,6 E,6 | %51
 A,6 A,6 | ^F,6 D,6 | G,6 G,6 | [E,G,]6 C,4 E,2 | G,6- G,6 | G,6 G,6 | x12 | %58
 z2 z2 [A,C]2 [^G,B,]4 z2 | z2 z2 [A,C]2 [^G,B,]4 z2 | A,4 G,2 F,4 E,2 | D,6- D,4 C,2 | %62
 B,,4 A,,2 D,6 | ^G,6 z6 | z2 [^G,B,]2 [B,D]2 [A,C]4 z2 | z2 [^G,B,]2 [B,D]2 [A,C]4 C,2 | %66
 D,4 A,,2 E,4 E,2 | A,,6- !fermata!A,,4 E,2 | F,4 D,2 G,4 E,2 | A,6 F,4 C,2 | x4 G,2 G,4 F,2 | %71
 E,6- E,4 x2 | C,6 z6 | z6 z2 z2 [E,G,]2 | A,6 z2 z2 B,2 | z2 z2 C,2 C,4 z2 | z12 | %77
 z2 z2 C,2 C,4 C,2 | G,6 G,6 | G,4 G,2 G,4 G,2 | C6- C4 F,2 | G,6 G,6 | C,6- C,4 :| %83
V:7
 x2 | x12 | x12 | F,4 E,2 D,4 C,2 | x12 | x12 | x12 | x12 | x10 :: x2 | x12 | x12 | x12 | x12 | %14
 x12 | x12 | x12 | x12 | x12 | x12 | x12 | x12 | x12 | x12 | x12 | x12 | x12 | x12 | x10 :: x2 | %30
 x12 | x12 | x12 | x12 | x12 | x12 | x12 | x12 | x12 | x12 | x12 | x12 | x12 | x12 | x12 | x12 | %46
 x12 | x12 | x10 :: x2 | x12 | x12 | x12 | x12 | x12 | x12 | x12 | x12 | x12 | x12 | x12 | x12 | %62
 x12 | E,6 x6 | x12 | x12 | x12 | x12 | x12 | x12 | C,6 z6 | z6 z2 z2 C,2 | x12 | x12 | %74
 F,6 x2 x2 D,2 | x12 | x12 | x12 | x12 | x12 | x12 | x12 | x10 :| %83
V:8
 x2 | x12 | x12 | x12 | x12 | x12 | x12 | x12 | x10 :: x2 | x12 | x12 | x12 | x12 | x12 | x12 | %16
 x12 | x12 | x12 | x12 | x12 | x12 | x12 | x12 | x12 | x12 | x12 | x12 | x10 :: x2 | x12 | x12 | %32
 x12 | x12 | x12 | x12 | x12 | x12 | x12 | x12 | x12 | x12 | x12 | x12 | x12 | x12 | x12 | x12 | %48
 x10 :: x2 | x12 | x12 | x12 | x12 | x12 | x12 | x12 | x12 | x12 | x12 | x12 | x12 | x12 | x12 | %64
 x12 | x12 | x12 | x12 | x12 | x12 | x12 | x12 | x12 | x12 | z2 z2 C,2 C,4 x2 | x12 | x12 | x12 | %78
 x12 | x12 | x12 | x12 | x10 :| %83

